lib/components/Logo/assets/LogoWhite.svg

<svg width="81" height="16" viewBox="0 0 81 16" fill="none" xmlns="http://www.w3.org/2000/svg">
<path d="M7.99605 15.9842C7.18872 15.9937 6.38284 15.9132 5.59339 15.7441C4.95179 15.6062 4.32676 15.4001 3.72893 15.1296C3.22567 14.8996 2.7541 14.6059 2.32578 14.2558C1.95686 13.9535 1.62174 13.6123 1.32627 13.238C0.680811 12.4299 0.227328 11.486 0 10.4774H5.61741C5.70387 10.7758 5.84748 11.0546 6.04028 11.2984C6.23969 11.525 6.48123 11.7109 6.75149 11.8457C7.13125 12.0289 7.55073 12.1148 7.97203 12.0953C8.42767 12.1343 8.88488 12.0409 9.28868 11.8265C9.39372 11.7643 9.48222 11.6777 9.54663 11.5741C9.61104 11.4704 9.64948 11.3528 9.6587 11.2311C9.65463 11.104 9.61575 10.9803 9.54628 10.8737C9.47681 10.767 9.3794 10.6814 9.26466 10.6262C8.93639 10.4394 8.58612 10.2943 8.22191 10.1941C7.78463 10.0645 7.29447 9.93485 6.73706 9.80523C6.17964 9.6756 5.62223 9.53157 5.0552 9.36353C4.48027 9.19918 3.91682 8.9971 3.36853 8.7586C2.83394 8.53317 2.33532 8.23069 1.88851 7.8608C1.45434 7.50667 1.09773 7.06706 0.84093 6.56931C0.566266 6.00455 0.43117 5.38222 0.44692 4.75452C0.457399 4.14391 0.622732 3.54594 0.927451 3.01654C1.2647 2.41357 1.7326 1.89358 2.29695 1.49461C2.98073 1.01121 3.74094 0.646051 4.54584 0.414371C5.55587 0.123058 6.60376 -0.0161035 7.65489 0.00148022C8.39098 -0.00622919 9.12572 0.0662126 9.84611 0.217526C10.4422 0.343232 11.0224 0.534856 11.576 0.788852C12.0428 1.00698 12.4803 1.28279 12.8783 1.60983C13.2196 1.89877 13.5318 2.22037 13.8105 2.57004C14.4073 3.3168 14.8367 4.18292 15.0695 5.1098H9.45688C9.4137 4.88986 9.31437 4.68478 9.16854 4.51447C9.02689 4.33906 8.85012 4.19516 8.64956 4.09198C8.3774 3.96051 8.0771 3.89785 7.77502 3.90954C7.38332 3.87724 6.99038 3.95542 6.64095 4.13519C6.54601 4.18817 6.46619 4.26448 6.40901 4.35689C6.35183 4.44931 6.31919 4.55477 6.31419 4.6633C6.31419 4.92255 6.54003 5.1434 6.99653 5.25863C7.45304 5.37386 8.02487 5.53709 8.70722 5.68112C9.38958 5.82516 10.1248 5.99799 10.9177 6.19964C11.6897 6.39283 12.4341 6.68321 13.1329 7.06382C13.7951 7.42087 14.376 7.91131 14.8388 8.50414C15.3164 9.1733 15.5566 9.98272 15.5212 10.8038C15.5212 11.4844 15.3564 12.1548 15.0407 12.7579C14.694 13.4121 14.2006 13.9773 13.5991 14.4094C12.8883 14.9303 12.0913 15.322 11.2444 15.5665C10.1858 15.8705 9.08783 16.0162 7.98643 15.9986" fill="white"/>
<path d="M20.211 5.09159H15.4922V0.43457H30.5472V5.09159H25.8284V15.5483H20.211V5.09159Z" fill="white"/>
<path d="M49.8047 0.43457H56.0948L60.2947 7.55933V0.43457H65.864V15.5483H59.5739L55.3837 8.42352V15.5483H49.8047V0.43457Z" fill="white"/>
<path d="M67.7969 0.43457H80.9971V4.75072H73.4143V6.15742H80.9971V9.82543H73.4143V11.2321H80.9971V15.5483H67.7969V0.43457Z" fill="white"/>
<path d="M39.5983 11.2076C38.9703 11.1831 38.3634 10.9747 37.853 10.6083C37.3426 10.2418 36.9513 9.73359 36.7277 9.14672C36.5042 8.55984 36.4583 7.92026 36.5957 7.30752C36.7331 6.69478 37.0478 6.13592 37.5006 5.70047C37.9535 5.26502 38.5244 4.97219 39.1425 4.85841C39.7606 4.74463 40.3986 4.81493 40.977 5.06054C41.5554 5.30616 42.0488 5.71625 42.3957 6.23982C42.7427 6.7634 42.9279 7.37734 42.9284 8.00527C42.9203 8.43402 42.8277 8.85697 42.656 9.24997C42.4842 9.64296 42.2366 9.99829 41.9274 10.2957C41.6181 10.593 41.2533 10.8266 40.8536 10.9831C40.454 11.1396 40.0275 11.2158 39.5983 11.2076ZM47.9596 4.87019C47.5444 3.909 46.9322 3.04544 46.1624 2.33523C45.3374 1.59065 44.3764 1.01196 43.3321 0.630857C40.917 -0.207682 38.2893 -0.207682 35.8742 0.630857C34.8286 1.0092 33.8671 1.58819 33.0439 2.33523C32.2711 3.04284 31.6584 3.90707 31.2467 4.87019C30.8312 5.85822 30.6172 6.91916 30.6172 7.99087C30.6172 9.06258 30.8312 10.1235 31.2467 11.1116C31.6571 12.0768 32.2699 12.9429 33.0439 13.6513C33.8671 14.3983 34.8286 14.9773 35.8742 15.3557C38.2904 16.1879 40.9159 16.1879 43.3321 15.3557C44.3764 14.9746 45.3374 14.3959 46.1624 13.6513C46.9334 12.9403 47.5458 12.0749 47.9596 11.1116C48.372 10.1227 48.5843 9.0621 48.5843 7.99087C48.5843 6.91964 48.372 5.85901 47.9596 4.87019Z" fill="white"/>
</svg>

<svg xmlns="http://www.w3.org/2000/svg" width="81" height="16" fill="none" viewBox="0 0 81 16"><path fill="#fff" d="M7.996 15.984c-.807.01-1.613-.07-2.403-.24a9.2 9.2 0 0 1-1.864-.614 6.46 6.46 0 0 1-2.403-1.892A6.8 6.8 0 0 1 0 10.478h5.617a2.4 2.4 0 0 0 .423.82c.2.227.441.413.711.548.38.183.8.269 1.221.25.456.038.913-.055 1.317-.27a.76.76 0 0 0 .37-.595.7.7 0 0 0-.394-.605 4.6 4.6 0 0 0-1.043-.432c-.437-.13-.928-.26-1.485-.389a29 29 0 0 1-1.682-.441 14 14 0 0 1-1.686-.605 6 6 0 0 1-1.48-.898A4.1 4.1 0 0 1 .84 6.569a3.9 3.9 0 0 1-.394-1.814c.01-.611.176-1.21.48-1.738a4.6 4.6 0 0 1 1.37-1.522A7.5 7.5 0 0 1 4.546.415 10.6 10.6 0 0 1 7.655 0c.736-.007 1.47.065 2.191.217a8.2 8.2 0 0 1 1.73.57c.467.219.904.495 1.302.822q.514.434.932.96a6.7 6.7 0 0 1 1.26 2.54H9.456a1.3 1.3 0 0 0-.288-.596 1.6 1.6 0 0 0-.52-.422 1.85 1.85 0 0 0-.874-.182 2.1 2.1 0 0 0-1.134.225.64.64 0 0 0-.327.528c0 .26.226.48.683.596.456.115 1.028.278 1.71.422a56 56 0 0 1 2.21.519 9.4 9.4 0 0 1 2.216.864 5.4 5.4 0 0 1 1.706 1.44c.477.67.718 1.479.682 2.3 0 .68-.165 1.35-.48 1.954a4.8 4.8 0 0 1-1.442 1.651c-.71.521-1.508.913-2.355 1.157-1.058.304-2.156.45-3.258.433M20.211 5.092h-4.719V.435h15.055v4.657h-4.719v10.456h-5.617zM49.805.435h6.29l4.2 7.124V.435h5.569v15.113h-6.29l-4.19-7.124v7.124h-5.58zM67.797.435h13.2V4.75h-7.583v1.406h7.583v3.668h-7.583v1.407h7.583v4.316h-13.2zM39.598 11.208a3.21 3.21 0 0 1-2.87-2.061 3.2 3.2 0 0 1 2.414-4.289 3.21 3.21 0 0 1 3.254 1.382 3.2 3.2 0 0 1 .532 1.765 3.263 3.263 0 0 1-3.33 3.203M47.96 4.87a7.5 7.5 0 0 0-1.798-2.535 8.7 8.7 0 0 0-2.83-1.704 11.37 11.37 0 0 0-7.458 0 8.5 8.5 0 0 0-2.83 1.704 7.4 7.4 0 0 0-1.797 2.535 8.05 8.05 0 0 0 0 6.242 7.3 7.3 0 0 0 1.797 2.54 8.5 8.5 0 0 0 2.83 1.704c2.416.832 5.042.832 7.458 0a8.7 8.7 0 0 0 2.83-1.705 7.5 7.5 0 0 0 1.798-2.54 8.1 8.1 0 0 0 0-6.24"/></svg>
